public/assets/icons/get-help.svg

<svg viewBox="0 0 50 50" xmlns="http://www.w3.org/2000/svg" xmlns:xlink="http://www.w3.org/1999/xlink"><linearGradient id="a" gradientUnits="userSpaceOnUse" x1="25" x2="25" y1="50" y2="0"><stop offset="0" stop-color="#facfdc"/><stop offset="1" stop-color="#d2e2f7"/></linearGradient><circle cx="25" cy="25" fill="url(#a)" r="25"/><g fill="#0d1c3a"><path d="m30.17 36h-2.15v-15.73c.006-.461-.369-.836-.83-.83h-6.4c-.461-.006-.836.369-.83.83v3.3c-.006.461.369.836.83.83h2v11.6h-2c-.461-.006-.836.369-.83.83v3.3c-.011.465.365.846.83.84h9.39c.465.006.841-.375.83-.84v-3.3c-.021-.453-.386-.815-.84-.83z"/><circle cx="25" cy="12.54" r="4"/></g></svg>

<?xml version="1.0" encoding="utf-8"?>
<svg viewBox="0 0 50 50" xmlns="http://www.w3.org/2000/svg">
  <defs>
    <style>.cls-1{fill:url(#New_Gradient_Swatch_2);}.cls-2{fill:#0d1c3a;}</style>
    <linearGradient id="New_Gradient_Swatch_2" x1="29.76" y1="55" x2="29.76" y2="5" gradientUnits="userSpaceOnUse" gradientTransform="matrix(1, 0, 0, 1, -4.76, -5)">
      <stop offset="0" stop-color="#facfdc"/>
      <stop offset="1" stop-color="#d2e2f7"/>
    </linearGradient>
  </defs>
  <title>get-help-icon copy 8</title>
  <g id="Layer_6">
    <circle class="cls-1" cx="25" cy="25" r="25"/>
    <path class="cls-2" d="M 30.17 36 L 28.02 36 L 28.02 20.27 C 28.026 19.809 27.651 19.434 27.19 19.44 L 20.79 19.44 C 20.329 19.434 19.954 19.809 19.96 20.27 L 19.96 23.57 C 19.954 24.031 20.329 24.406 20.79 24.4 L 22.79 24.4 L 22.79 36 L 20.79 36 C 20.329 35.994 19.954 36.369 19.96 36.83 L 19.96 40.13 C 19.949 40.595 20.325 40.976 20.79 40.97 L 30.18 40.97 C 30.645 40.976 31.021 40.595 31.01 40.13 L 31.01 36.83 C 30.989 36.377 30.624 36.015 30.17 36 Z"/>
    <circle class="cls-2" cx="25" cy="12.54" r="4"/>
  </g>
</svg>
